X:1
T:Ostend, CMD
T:Ostend, CMD
T:Lowell Mason (1792-1872)
T:Public Domain Courtesy of the Cyber Hymnal™
C:Lowell Mason (1792-1872)
Z:Public Domain
Z:Courtesy of the Cyber Hymnal™
%%score ( 1 2 ) ( 3 4 )
L:1/8
Q:1/4=113
M:4/4
K:Eb
V:1 treble 
V:2 treble 
V:3 bass 
V:4 bass 
V:1
 [EB]2 | [EG]3 [EA] [EB]2 [EB]2 | [Ec]2 [EB]2 [EB]2 [EG]2 | [DF]3 [EG] [FA]2 [GB]2 | [EG]6 [EB]2 | %5
 [EG]3 [EA] [EB]2 [EB]2 | [Ec]2 [EB]2 [EB]2 [EG]2 | [EF]3 [EF] [DG]2 [DF]2 | E6 [EB]2 | %9
 [Ee]3 [EB] [EB]2 [Ee]2 | [Ee]3 [Ac] [Ac]2 [Ac]2 | [FB]3 [DF] [DF]2 [FA]2 | %12
 [EG]3 [FA] [GB]2 [EB]2 | [Ee]3 [EB] [EB]2 [Ee]2 | [Ee]3 [Ac] [Ac]2 [Ac]2 | %15
 [FB]3 [DF] [DG]2 [DF]2 | E6 |] %17
V:2
 x2 | x8 | x8 | x8 | x8 | x8 | x8 | x8 | E6 x2 | x8 | x8 | x8 | x8 | x8 | x8 | x8 | E6 |] %17
V:3
 [E,G,]2 | E,3 [E,F,] [E,G,]2 [E,G,]2 | [E,A,]2 [E,G,]2 [E,G,]2 [E,B,]2 | %3
 [B,,B,]3 [B,,B,] [B,,B,]2 [B,,B,]2 | [E,B,]6 [E,G,]2 | E,3 [E,F,] [E,G,]2 [E,G,]2 | %6
 [E,A,]2 [E,G,]2 [E,G,]2 [E,B,]2 | [B,,B,]3 [B,,B,] [B,,B,]2 [B,,A,]2 | [E,G,]6 [E,G,]2 | %9
 [E,G,]3 [E,G,] [E,G,]2 [E,G,]2 | [A,C]3 [A,E] [A,E]2 [A,E]2 | [B,D]3 B, B,2 [B,,B,]2 | %12
 [E,B,]6 [E,G,]2 | [E,G,]3 [E,G,] [E,G,]2 [E,G,]2 | [A,C]3 [A,E] [A,E]2 [A,E]2 | %15
 [B,D]3 B, B,2 [B,,A,]2 | [E,G,]6 |] %17
V:4
 x2 | E,3 x5 | x8 | x8 | x8 | E,3 x5 | x8 | x8 | x8 | x8 | x8 | x3 B, B,2 x2 | x8 | x8 | x8 | %15
 x3 B, B,2 x2 | x6 |] %17

